X: 134007
Q: "Irish Reel."
M: C
L: 1/8
K: G
|:\
(ga) |\
b2ag b2ag | egdg egdg |
b2ag b2ag | egfa g2(ga) |\
b2ag b2ag | egdg egdg |\
(3(bag) (af) gefd | cdef gecA |]


